X: 38
T:Da Scallowa Lasses
G:Shetland reel
M:C|
L:1/8
Q:1/2=104
K:ADor
Aa-af    efed|cdef gagd|Aa-af efed|cABG A2BG |
Aa-af    efed|cdef gagd|Aa-af efed|cABG A2A2||
BE (3EEE c2cA|dedB gfed|ea-ag efed|cABG A2A2:|

These are fairly typical examples from early music, but not from chant:

